!!!!SEGMENT: pl-wtm--r-2307_troschel-wilhelm--piesn-oracza.krn
!!!cenid: 18xx:2266
!!!COM: Troschel, Wilhelm
!!!COM-rismid: pe30024099
!!!CDT: 1823/08/23-1887/03/02
!!!CNT: Polish
!!!OTL: Pieśń oracza
!!!PDT:
!!!AGN:
!!!SMS-siglum: PL-Wtm
!!!SMS-shelfmark: R 2307
!!!SMS-shelfwork: W
!!!SMS-variant:
!!!SMS-altvar:
!!!NIFC-rismid: 1001114138
!!!URL-scan: http://repozytorium.nifc.pl/skany/pl-wtm-nut--r2307
!!!ONB-nifc: UWAGA: Zakończenie utworu wykreślone i zapisane w nowej wersji na karcie tytułowej.
**kern	**kern	**dynam	**kern	**text	**text	**text	**dynam
*part2	*part2	*part2	*part1	*part1	*part1	*part1	*part1
*staff3	*staff2	*	*staff1	*staff1	*staff1	*staff1	*
*Iforte	*Iforte	*	*Iempty	*	*	*	*
*I"Fortepian	*I"Fortepian	*	*I"Śpiew	*	*	*	*
*clefF4	*clefG2	*	*clefG2	*	*	*	*
*k[b-e-a-]	*k[b-e-a-]	*	*k[b-e-a-]	*	*	*	*
*c:	*c:	*	*c:	*	*	*	*
*M3/4	*M3/4	*	*M3/4	*	*	*	*
*>[A,B,B1,B,B1,B,B2,C]	*>[A,B,B1,B,B1,B,B2,C]	*	*>[A,B,B1,B,B1,B,B2,C]	*	*	*	*
=1	=1	=1	=1	=1	=1	=1	=1
*>A	*>A	*	*>A	*	*	*	*
*all\right	*all\right	*	*all\right	*	*	*	*
!	!LO:TX:a:t=Wolno i smętnie	!	!	!	!	!	!
!	!	!LO:DY:b:t=sempre pp.:rj	!	!	!	!	!
8GGG\L	(8GG</L	pp <	2.r	.	.	.	.
8AAA-\J	8AA-</J	.	.	.	.	.	.
4CC\	4C</	[ >	.	.	.	.	.
4BBBn\	4BBn</)	]]	.	.	.	.	.
=2	=2	=2	=2	=2	=2	=2	=2
!	!	!LO:DY:a	!	!	!	!	!
8BBBn\L	(8BBn</L	<	2.r	.	.	.	.
8CC\J	8C</J	.	.	.	.	.	.
!	!	!LO:DY:a	!	!	!	!	!
4EE-\	4E-</	[ >	.	.	.	.	.
4DD\	4D</)	]]	.	.	.	.	.
=3	=3	=3	=3	=3	=3	=3	=3
!	!	!LO:DY:a	!	!	!	!	!
4.AA-\	4.A-</	<	2.r	.	.	.	.
8DD\L	8D</L	.	.	.	.	.	.
8EE-\	8E-</	[	.	.	.	.	.
8FF\J	8F</J	.	.	.	.	.	.
=4	=4	=4	=4	=4	=4	=4	=4
4.FF^^\	4.F<^^/	.	2.r	.	.	.	.
8BBBn\L	(8BBn</L	.	.	.	.	.	.
8CC\	8C</	.	.	.	.	.	.
8DD\J	8D</J)	.	.	.	.	.	.
!!LO:LB:g=original
=5	=5	=5	=5	=5	=5	=5	=5
!LO:TX:t=P:problem:akcent nad i pod	!	!	!	!	!	!	!
((2.AAA-^>^</ 2.AA-	2.r	.	2.r	.	.	.	.
=6	=6	=6	=6	=6	=6	=6	=6
!LO:TX:t=segno	!LO:TX:t=segno	!	!LO:TX:t=segno	!	!	!	!
2.GGG/)) 2.GG	2.r	.	2.r	.	.	.	.
=7||	=7||	=7||	=7||	=7||	=7||	=7||	=7||
*>B	*>B	*	*>B	*	*	*	*
2.CC^^</ 2.GG 2.C	2.r	.	2.r	.	.	.	.
=8	=8	=8	=8	=8	=8	=8	=8
2.CC^^</ 2.GG 2.C	2.r	.	2.r	.	.	.	.
!!LO:LB:g=original
=9	=9	=9	=9	=9	=9	=9	=9
*2\right	*	*	*	*	*	*	*
!	!	!	!LO:TX:a:t=Z rzewną prostotą	!	!	!	!
2.CC\ 2.GG	2.E-</ 2.G< 2.c<	.	8g/	Gdzie	Gdzie	Gdzie	.
.	.	.	8e-/	ty	wy	ty	.
.	.	.	4d/	le-	chmu-	i-	.
.	.	.	4c/	-cisz	-rą	-dziesz	.
=10	=10	=10	=10	=10	=10	=10	=10
2.CC\ 2.GG	2.F</ 2.G< 2.Bn<	.	8d/	so-	le-	czło-	.
.	.	.	8e-/	-ko-	-ci-	-wie-	.
.	.	.	4d/	-le?	-cie	-cze?	.
.	.	.	4r	.	.	.	.
=11	=11	=11	=11	=11	=11	=11	=11
2.CC\ 2.C	2.E-</ 2.G< 2.c<	.	8e-/	Po-	Czar-	Przez	.
.	.	.	8f/	-nad	-ne	łzy,	.
.	.	.	4g/	la-	kru-	o-	.
.	.	.	4cc\	-sy	-ki	-gień	.
!!LO:LB:g=original
=12	=12	=12	=12	=12	=12	=12	=12
2.CC\ 2.C	4F</ 4A-< 4c<	.	8b-\	i	o	i	.
.	.	.	8a-\	po-	świ-	mie-	.
.	2E-</ 2G< 2c<	.	4g/	-le?	-cie?	-cze?	.
.	.	.	4r	.	.	.	.
=13	=13	=13	=13	=13	=13	=13	=13
*	*	*	*^	*	*	*	*
2.BBBn\ 2.BBn	4r<	.	8g/L	8g\	gdzie	Czy	Czy	.
.	.	.	8d/J	8d\	.	na	za	.
.	2G</ 2d<	.	(4g/	2ryy	czar-	żer	du-	.
.	.	.	4f/)	.	-ne	.	-szy	.
=14	=14	=14	=14	=14	=14	=14	=14	=14
2.CC\ 2.C	4r<	.	8e-/	8e-\L	skrzyd-	bo-	po-	.
.	.	.	8f/	8f\J	-ła	-jo-	.	.
.	2G</ 2c< 2e-<	.	4g/	2ryy	nio-	-wis-	-trze-	.
.	.	.	4a-/	.	-są ?	-ka	-bą !?	.
*	*	*	*v	*v	*	*	*	*
!!LO:PB:g=original
=15	=15	=15	=15	=15	=15	=15	=15
2.DD\ 2.D	4r<	.	8b-/	Za	Czy	Czy	.
.	.	.	8f/	żyw-	gdzie	po	.
.	2A-</ 2B-< 2f<	.	4b-/	-no-	Krew	pie-	.
.	.	.	4a-/	-ścią ?	.	-kło,	.
=16	=16	=16	=16	=16	=16	=16	=16
*	*	*	*^	*	*	*	*
2.EE-\ 2.E-	4r<	.	8g/L	8g\	za	rze-	czy	.
.	.	.	8f/J	8f\	.	ką	.	.
.	2G</ 2B-< 2e-<	.	4g/	2ryy	ro-	try-	nie-	.
.	.	.	4e-/	.	-lą ?	-ska ?	-bo?	.
=17	=17	=17	=17	=17	=17	=17	=17	=17
*^	*^	*	*	*	*	*	*	*
4C/	4FF\	4d/	4A-\	.	4d/	8d\	Za	Czy	Czy	.
.	.	.	.	.	.	8d\	.	na	.	.
*	*	*	*2\right	*	*	*	*	*	*	*
4C/	2FF#X\	4e-/	2An\	sf	4e-^^/	2ryy	woj-	sta-	gdzi	.
8D/L	.	8d/L	.	.	8d/L	.	-ną ?	-re	cię	.
8E-/J	.	8c/J	.	.	8c/J	.	.	.	.	.
*v	*v	*	*	*	*	*	*	*	*	*
*	*v	*v	*	*	*	*	*	*	*
!!LO:LB:g=original
=18	=18	=18	=18	=18	=18	=18	=18	=18
2.GG\ 2.D	2.G/ 2.Bn	.	8Bn/	2ryy	czy	cmen-	głos	.
.	.	.	8c/	.	po-	.	a-	.
.	.	.	N((>4d/	.	-ko-	-ta-	-nio-	.
.	.	.	4g/)	4G\N)	-jem?	-rze?	-ła	.
=19	=19	=19	=19	=19	=19	=19	=19	=19
2.GG\ 2.E-	2.G/ 2.c	sf	(8g'/	4g\	gdzie	Czy	Na	<
.	.	.	8g'/	.	spie-	gdzie	.	.
.	.	.	8cc'/L	8cc\	-szy	Pan	wiecz-	[
.	.	.	8g'/J	8g\	.	.	-ny	.
.	.	.	8f'/	8f\L	cie	Bóg	spo-	.
.	.	.	8e-'/)	8e-\J	się	wam,	-Kój	.
*	*	*	*v	*v	*	*	*	*
=20	=20	=20	=20	=20	=20	=20	=20
*	*^	*	*	*	*	*	*
*	*	*	*^	*	*	*	*	*
2.GG\	(4d/	[4Bn\	.	.	(4d/	ro-	Ka-	wo-	>
.	2g/)	8B\]	.	.	4g/)	-jem ?	-że ?	-ła	]
!	!	!	!	!LO:HP:b=2:t=dim.	!	!	!	!	!
.	.	8En</L 8G<	>	>	.	.	.	.	.
.	.	8F</ 8An<	.	.	4r	.	.	.	.
.	.	8D</J 8F<	]	.	.	.	.	.	.
*	*	*	*v	*v	*	*	*	*	*
*	*v	*v	*	*	*	*	*	*
!!LO:LB:g=original
=21||	=21||	=21||	=21||	=21||	=21||	=21||	=21||
*k[]	*k[]	*	*k[]	*	*	*	*
!	!	!	!LO:TX:a:i:t=łagodnie	!	!	!	!
.	8qff#X/	p	.	.	.	.	.
*^	*	*	*	*	*	*	*
*	*^	*	*	*	*	*	*	*
(8C/L 8E	2.C\	4ryy	2.g\ 2.gg	.	8e/	Gdzie	Gdzie	gdzie	.
8D/J 8F	.	.	.	.	8f/	ty	ty	i-	.
4G/	.	2E/	.	.	4g/	le-	le-	-dzie-	.
4A/)	.	.	.	.	4a/	-cisz	-cisz	-cie	.
=22	=22	=22	=22	=22	=22	=22	=22	=22	=22
.	.	.	8qaa/	.	.	.	.	.	.
(8D/L 8B	2.C\	4ryy	2.g\ 2.gg	.	8b\	jas-	bo-	spie-	.
8E/J 8A	.	.	.	.	8a\	-kół-	-cia-	-szy-	.
4F\	.	2G/	.	.	4g/	-ko	-nie,	-cie	.
8E\L	.	.	.	.	4r	.	.	.	.
8D\J)	.	.	.	.	.	.	.	.	.
*v	*v	*v	*	*	*	*	*	*	*
=23	=23	=23	=23	=23	=23	=23	=23
.	8qff#X/	.	.	.	.	.	.
*^	*	*	*^	*	*	*	*
(8C/L 8E	2.C\	2.g\ 2.gg	.	8e/	8e\L	Cha-	Czy	Ty	<
8D/ 8F	.	.	.	8f/	8f\J	-ty	na	.	.
8E/ 8G	.	.	.	(>8g\L	2ryy	mej	mię-	śmier-	[
8E/ 8c	.	.	.	8cc\J)	.	.	.	-ci	.
8G/ 8B	.	.	.	8b\	.	przy-	-ksze	i	.
8F/J) 8A	.	.	.	8a\	.	-ja-	po-	ty	.
*v	*v	*	*	*v	*v	*	*	*	*
!!LO:LB:g=original
=24	=24	=24	=24	=24	=24	=24	=24
.	8qaa/	.	.	.	.	.	.
*^	*	*	*	*	*	*	*
*	*^	*	*	*	*	*	*	*
(8C/L 8E	2.C\	4ryy	2.g\ 2.gg	.	8b\L	-ció-	-sła-	ży-	.
!	!	!	!	!LO:HP:b=2	!	!	!	!	!
8D/J 8F	.	.	.	>	8a\J	.	.	.	.
!	!	!	!	!	!	!	!	!	!LO:DY:a
8F\L	.	2G/	.	.	4g/	-łko,	-nie,	-cie ?	>
8D\J	.	.	.	.	.	.	.	.	.
4E\)	.	.	.	]	4r	.	.	.	]]
*v	*v	*v	*	*	*	*	*	*	*
=25	=25	=25	=25	=25	=25	=25	=25
*	*	*	*^	*	*	*	*
!	!	!	!LO:TX:a:i:t=nieco żywiej	!	!	!	!	!
2.AA\ 2.A	4r	.	8a/	8a\L	Kie-	Czy	gdzie	.
.	.	<	8b/	8b\J	-dy	za	.	.
.	4c/ 4e 4a	.	4cc\	2ryy	chło-	ja-	wczo-	.
.	4c/ 4e	.	8b\L	.	-dy	-dłem	-raj ?	.
.	.	.	8a\J	.	.	.	.	.
=26	=26	=26	=26	=26	=26	=26	=26	=26
2.EE\ 2.E	4r	.	8g/L	8g\	ob-	ob-	gdzie	.
.	.	.	8a/J	8a\	.	.	są	.
.	2B/ 2e 2g	.	(>4b/	2ryy	-wio-	-fi-	la-	.
.	.	.	4e/)	.	-ną ?	-tem,	-ta ?	.
!!LO:PB:g=original
=27	=27	=27	=27	=27	=27	=27	=27	=27
!	!	!LO:DY:rj	!LO:TX:a:i:t=Io tempo	!	!	!	!	!LO:DY:b:rj
2.FF\ 2.F	4r	p	8f/L	8f\	Za	Czy	Gdzie	p
.	.	.	8g/J	8g\	.	za	.	.
.	4A/ 4c 4f	.	4a/	2ryy	wio-	skar-	prze-	.
.	4A/ 4c	.	8g/L	.	-sną	-bem	-szłe	.
.	.	.	8f/J	.	i	.	.	.
=28	=28	=28	=28	=28	=28	=28	=28	=28
2.C\	4r	.	8e/	8e\L	za	u-	wie-	.
.	.	.	8f/	8f\J	zie-	.	-ki	.
.	2G/ 2c 2e	.	(4g/	2ryy	-lo-	-kry-	świa-	.
.	.	.	4c/)	.	-ną,	-tem,	-ta ?	.
*	*	*	*v	*v	*	*	*	*
=29	=29	=29	=29	=29	=29	=29	=29
*	*^	*	*	*	*	*	*
(4BB\	(4d/	2.G\	.	8d/	Za	Czy	Gdzie	.
.	.	.	.	8g/	musz-	za	oj-	.
4C\	4e/	.	.	4e/	-ka-	gło-	-co-	.
4AA/)	4c/)	.	.	4c/	-mi	-sem	-wie	.
!!LO:LB:g=original
=30	=30	=30	=30	=30	=30	=30	=30	=30
*^	*	*	*	*	*	*	*	*
4BBB\	4BB\	(4d</	4G</	.	8d/L	za	co	dzia-	.
.	.	.	.	.	8g/J	.	.	.	.
!	!	!	!	!LO:HP:t=dim	!	!	!	!	!
4CC\	2C\	4e-X</	2G</	>	(>4e-X/	słoń-	wo-	-do-	.
4EE-X\	.	4c</)	.	.	4c/)	-cem,	-ła,	-wie!	.
*v	*v	*	*	*	*	*	*	*	*
*	*v	*v	*	*	*	*	*	*
=31	=31	=31	=31	=31	=31	=31	=31
*	*	*	*^	*	*	*	*
!	!LO:TX:b:t=ociągając	!LO:DY:rj	!	!	!	!	!	!LO:DY:b:rj
2.AAA-X\ 2.AA-X	2.E-X</ 2.c<	f	8.cc/	8.cc\L	Czyś	W_in-	Któż	f
.	.	.	16b-X/	16b-\Jk	wy	.	to	.
.	.	.	8a-X\	4a-/	słań-	-ne-	wie ?	.
.	.	>	8a-\	.	.	-go	.	>
.	.	.	8.e-X/	4ryy	-cem	Kra-	Kto	.
.	.	]]	16f/	.	czy	-ju	to	]]
*	*	*	*v	*v	*	*	*	*
=32	=32	=32	=32	=32	=32	=32	=32
*	*^	*	*	*	*	*	*
(2EE-X\ 2BB-X	(2G</	2.E<\	p	8g/L	goń-	sio-	po-	.
.	.	.	.	8qb-X/	.	.	.	.
.	.	.	.	8a-X/J	.	.	.	.
.	.	.	.	4g/	-cem?	-ła ?	-wie ???	.
!	!LO:TX:a:t=vi	!	!	!	!	!	!	!
4DD\) 4BBn	4F</)	.	.	4r	.	.	.	.
*	*v	*v	*	*	*	*	*	*
!!LO:PB:g=original
=33	=33	=33	=33	=33	=33	=33	=33
!LO:TX:a:t=Io 2do	!LO:TX:a:t=Io 2do	!	!	!	!	!	!
*>B1	*>B1	*	*>B1	*	*	*	*
!	!LO:TX:a:t=de	!LO:DY:t=pp.:rj	!	!	!	!	!
2CC\	(8.C</L 8.E-X<	pp	2.r	.	.	.	.
.	16D</Jk 16F<	.	.	.	.	.	.
.	4E-</ 4G<	.	.	.	.	.	.
4r	8.BBn</L	.	.	.	.	.	.
.	16C</Jk	.	.	.	.	.	.
=34	=34	=34	=34	=34	=34	=34	=34
!LO:TX:t=segno	!LO:TX:t=segno	!	!LO:TX:t=segno	!	!	!	!
4FF#X\	4AA</ 4C< 4E-X<	.	2.r	.	.	.	.
2GG\	2BB</) 2D<	.	.	.	.	.	.
=35||	=35||	=35||	=35||	=35||	=35||	=35||	=35||
!LO:TX:a:t=3o	!LO:TX:a:t=3o	!	!LO:TX:a:t=3o	!	!	!	!
*>B2	*>B2	*	*>b2	*	*	*	*
!	!LO:TX:b:t=Lento	!	!LO:TX:a:t=Lento	!	!	!	!LO:DY:b:rj
[4CC\	8.C</L 8.E-X<	pp	8.e-X/	Kto	.	.	pp
!	!	!LO:DY:a	!	!	!	!	!
.	16D</Jk 16F<	>	16f/	to	.	.	.
8CC\]	8E-</ 8G<	.	8g/	wie ?	.	.	.
8r	8r<	]	8r	.	.	.	.
4r	8.BBn</L	.	8.B/	Kto	.	.	.
.	16E-</Jk	.	16c/	to	.	.	.
!!LO:LB:g=original
=36	=36	=36	=36	=36	=36	=36	=36
*>C	*>C	*	*>C	*	*	*	*
!	!LO:TX:b:i:t=smorzando	!LO:DY:a	!LO:TX:a:i:t=smorzando	!	!	!	!LO:HP:b
2.FFF#X\	2.AA</ 2.C< 2.E-X<	>	(>2.e-X/	po-	.	.	>]
=37	=37	=37	=37	=37	=37	=37	=37
2.GGG\	2.BB</ 2.D<	]]	2d/)	-wie ???	.	.	.
.	.	.	4r	.	.	.	.
=38	=38	=38	=38	=38	=38	=38	=38
2.CCC;<\ 2.CC	2.C<;>/	ppp	2.r;	.	.	.	.
!!LO:PB:g=original
==	==	==	==	==	==	==	==
*-	*-	*-	*-	*-	*-	*-	*-
!!!system-decoration: s1{(s2,s3)}
!!!RDF**kern: < = below
!!!RDF**kern: > = above
!!!RDF**kern: N = linked
!!!ENC: Marta Chmielewska
!!!END: 2021-06-08
!!!ENC: Tomasz Grochalski
!!!END: 2021-05-25
